X:0440
M:6/8
L:1/8
Q:3/8=120
K:G
ded dBG|ABd e3 |ded dBG|DE=F E2D|
ded dBG|ABd efg|dBd A2G|E3   G3|]

